SVG_Azure_Grouped/Application/API Management Product.svg

<?xml version="1.0" encoding="UTF-8" standalone="no"?>
<!-- Generated by Microsoft Visio, SVG Export API Management Product.svg Page-1 -->

<svg
   xmlns:dc="http://purl.org/dc/elements/1.1/"
   xmlns:cc="http://creativecommons.org/ns#"
   xmlns:rdf="http://www.w3.org/1999/02/22-rdf-syntax-ns#"
   xmlns:svg="http://www.w3.org/2000/svg"
   xmlns="http://www.w3.org/2000/svg"
   xmlns:sodipodi="http://sodipodi.sourceforge.net/DTD/sodipodi-0.dtd"
   xmlns:inkscape="http://www.inkscape.org/namespaces/inkscape"
   width="0.78738463in"
   height="0.74889147in"
   viewBox="0 0 56.691761 53.920381"
   xml:space="preserve"
   class="st4"
   version="1.1"
   id="svg34"
   sodipodi:docname="API Management Product.svg"
   style="font-size:12px;overflow:visible;color-interpolation-filters:sRGB;fill:none;fill-rule:evenodd;stroke-linecap:square;stroke-miterlimit:3"
   inkscape:version="0.92.5 (2060ec1f9f, 2020-04-08)"><metadata
   id="metadata40"><rdf:RDF><cc:Work
       rdf:about=""><dc:format>image/svg+xml</dc:format><dc:type
         rdf:resource="http://purl.org/dc/dcmitype/StillImage" /></cc:Work></rdf:RDF></metadata><defs
   id="defs38" /><sodipodi:namedview
   pagecolor="#ffffff"
   bordercolor="#666666"
   borderopacity="1"
   objecttolerance="10"
   gridtolerance="10"
   guidetolerance="10"
   inkscape:pageopacity="0"
   inkscape:pageshadow="2"
   inkscape:window-width="640"
   inkscape:window-height="480"
   id="namedview36"
   showgrid="false"
   inkscape:zoom="1.7674789"
   inkscape:cx="37.795127"
   inkscape:cy="21.454218"
   inkscape:window-x="0"
   inkscape:window-y="0"
   inkscape:window-maximized="0"
   inkscape:current-layer="svg34" />
	<style
   type="text/css"
   id="style2">
	<![CDATA[
		.st1 {fill:#3796c4;stroke:none;stroke-linecap:butt;stroke-width:12.24}
		.st2 {fill:#59b2d7;stroke:none;stroke-linecap:butt;stroke-width:12.24}
		.st3 {fill:#57a300;stroke:none;stroke-linecap:butt;stroke-width:12.24}
		.st4 {fill:none;fill-rule:evenodd;font-size:12px;overflow:visible;stroke-linecap:square;stroke-miterlimit:3}
	]]>
	</style>

	<g
   id="g32"
   transform="translate(-12.240101,-12.241841)">
		<title
   id="title4">Page-1</title>
		<g
   id="group14890-1"
   transform="translate(12.24,-34.0157)">
			<title
   id="title6">API Management Product.14890</title>
			<g
   id="group14891-2">
				<title
   id="title8">Sheet.14891</title>
				<g
   id="shape14892-3">
					<title
   id="title10">Sheet.14892</title>
					<path
   d="M 28.22,100.06 2.65,92.5 A 4.04787,3.99962 0 0 1 0,89.24 V 56.75 c 0,-1.72 1.66,-2.77 3.32,-3.22 l 25.65,-7.25 c 0.2,0 1.02,0.21 1.02,0.42 l 1.62,52.97 a 5.28378,5.22079 0 0 1 -3.39,0.39 z"
   class="st1"
   id="path12"
   inkscape:connector-curvature="0"
   style="fill:#3796c4;stroke:none;stroke-width:12.23999977;stroke-linecap:butt" />
				</g>
				<g
   id="shape14893-5"
   transform="translate(28.5619,-0.193927)">
					<title
   id="title15">Sheet.14893</title>
					<path
   d="M 25.86,92.79 2.47,100.14 A 1.8822,1.85977 0 0 1 0,98.31 V 47.13 A 0.657638,0.649798 0 0 1 0.850394,46.480202 L 25.86,54.7 c 1.14,0.34 2.27,1.12 2.27,2.14 v 33.33 a 2.7326,2.70002 0 0 1 -2.27,2.62 z M 24.73,59.18 5.45,53.58 v 40.33 l 19.28,-5.6 z"
   class="st2"
   id="path17"
   inkscape:connector-curvature="0"
   style="fill:#59b2d7;stroke:none;stroke-width:12.23999977;stroke-linecap:butt" />
				</g>
				<g
   id="shape14894-7"
   transform="translate(42.5764,-23.1385)">
					<title
   id="title20">Sheet.14894</title>
					<path
   d="M 4.35,100.14 H 0 V 84.36 l 4.35,0.88 z"
   class="st3"
   id="path22"
   inkscape:connector-curvature="0"
   style="fill:#57a300;stroke:none;stroke-width:12.23999977;stroke-linecap:butt" />
				</g>
				<g
   id="shape14895-9"
   transform="translate(40.1499,-14.1422)">
					<title
   id="title25">Sheet.14895</title>
					<path
   d="M 8.97,90.52 0,90.91 l 4.68,9.23 z"
   class="st3"
   id="path27"
   inkscape:connector-curvature="0"
   style="fill:#57a300;stroke:none;stroke-width:12.23999977;stroke-linecap:butt" />
				</g>
			</g>
		</g>
	</g>
</svg>

<?xml version="1.0" encoding="UTF-8" standalone="no"?>
<!DOCTYPE svg PUBLIC "-//W3C//DTD SVG 1.1//EN" "http://www.w3.org/Graphics/SVG/1.1/DTD/svg11.dtd">
<!-- Generated by Microsoft Visio, SVG Export API Management Product.svg Page-1 -->
<svg xmlns="http://www.w3.org/2000/svg" xmlns:xlink="http://www.w3.org/1999/xlink" xmlns:ev="http://www.w3.org/2001/xml-events"
		width="1.1274in" height="1.39087in" viewBox="0 0 81.1729 100.143" xml:space="preserve" color-interpolation-filters="sRGB"
		class="st4">
	<style type="text/css">
	<![CDATA[
		.st1 {fill:#3796c4;stroke:none;stroke-linecap:butt;stroke-width:12.24}
		.st2 {fill:#59b2d7;stroke:none;stroke-linecap:butt;stroke-width:12.24}
		.st3 {fill:#57a300;stroke:none;stroke-linecap:butt;stroke-width:12.24}
		.st4 {fill:none;fill-rule:evenodd;font-size:12px;overflow:visible;stroke-linecap:square;stroke-miterlimit:3}
	]]>
	</style>

	<g>
		<title>Page-1</title>
		<g id="group14507-1" transform="translate(12.24,-34.0157)">
			<title>API Management Product.14507</title>
			<g id="group14508-2">
				<title>Sheet.14508</title>
				<g id="shape14509-3">
					<title>Sheet.14509</title>
					<path d="M28.22 100.06 L2.65 92.5 A4.04787 3.99962 0 0 1 -0 89.24 L0 56.75 C0 55.03 1.66 53.98 3.32 53.53 L28.97
								 46.28 C29.17 46.28 29.99 46.49 29.99 46.7 L31.61 99.67 A5.28378 5.22079 0 0 1 28.22 100.06 Z"
							class="st1"/>
				</g>
				<g id="shape14510-5" transform="translate(28.5619,-0.193927)">
					<title>Sheet.14510</title>
					<path d="M25.86 92.79 L2.47 100.14 A1.8822 1.85977 0 0 1 0 98.31 L0 47.13 a0.657638 0.649798 0 0 1 0.850394 -0.649798
								 L25.86 54.7 C27 55.04 28.13 55.82 28.13 56.84 L28.13 90.17 A2.7326 2.70002 0 0 1 25.86 92.79 ZM24.73
								 59.18 L5.45 53.58 L5.45 93.91 L24.73 88.31 L24.73 59.18 Z" class="st2"/>
				</g>
				<g id="shape14511-7" transform="translate(42.5764,-23.1385)">
					<title>Sheet.14511</title>
					<path d="M4.35 100.14 L0 100.14 L0 84.36 L4.35 85.24 L4.35 100.14 Z" class="st3"/>
				</g>
				<g id="shape14512-9" transform="translate(40.1499,-14.1422)">
					<title>Sheet.14512</title>
					<path d="M8.97 90.52 L0 90.91 L4.68 100.14 L8.97 90.52 Z" class="st3"/>
				</g>
			</g>
		</g>
	</g>
</svg>
